material/.icons/material/format-text-rotation-down-vertical.svg

<svg xmlns="http://www.w3.org/2000/svg" viewBox="0 0 24 24"><path d="M15.25 4h-1.5L9 15h2.1l.9-2.2h5l.9 2.2H20L15.25 4m-2.62 7l1.87-5 1.87 5h-3.74M5 17.5l3-3H6V2H4v12.5H2l3 3M22 20l-3-3v2H6.5v2H19v2l3-3z"/></svg>

<?xml version="1.0" encoding="UTF-8"?><!DOCTYPE svg PUBLIC "-//W3C//DTD SVG 1.1//EN" "http://www.w3.org/Graphics/SVG/1.1/DTD/svg11.dtd"><svg xmlns="http://www.w3.org/2000/svg" xmlns:xlink="http://www.w3.org/1999/xlink" version="1.1" id="mdi-format-text-rotation-down-vertical" width="24" height="24" viewBox="0 0 24 24"><path d="M15.25 4H13.75L9 15H11.1L12 12.8H17L17.9 15H20L15.25 4M12.63 11L14.5 6L16.37 11H12.63M5 17.5L8 14.5H6V2H4V14.5H2L5 17.5M22 20L19 17V19H6.5V21H19V23L22 20Z" /></svg>
